app/images/logo.svg

<svg width="200" height="20" viewBox="0 0 200 20" fill="none" xmlns="http://www.w3.org/2000/svg">
<path d="M3.90472 0H27.375C29.8163 0 31.6778 0.894688 32.9593 2.68406C33.445 3.62846 33.6072 4.52314 33.446 5.36813L32.7383 9.07735C32.3945 10.8792 31.0221 12.4014 28.6211 13.644C27.2775 14.2156 26.0023 14.5014 24.7955 14.5014H8.17071L7.13939 19.9068C7.12753 19.9689 7.08693 20 7.01757 20H0.0888491C0.0194925 20 -0.0092587 19.9689 0.00259551 19.9068L3.7829 0.0931966C3.80863 0.0310655 3.84923 0 3.90472 0ZM10.0306 4.75303L9.07755 9.74837H22.6229C24.0655 9.74837 25.0889 9.18298 25.693 8.05219C25.7983 7.79124 25.8747 7.5365 25.9221 7.28798C26.152 6.08263 25.7432 5.28114 24.6955 4.8835C24.3653 4.79652 24.0199 4.75303 23.6592 4.75303H10.0306Z" fill="white"/>
<path d="M36.6549 0H43.5836C43.6506 0.0124262 43.6794 0.0434918 43.6699 0.0931966L41.4579 11.6869C41.1236 13.439 41.7586 14.5822 43.3628 15.1165C43.7322 15.2159 44.0834 15.2656 44.4163 15.2656H57.1502L60.045 0.0931966C60.0707 0.0310655 60.1113 0 60.1668 0H67.1163C67.1833 0.0124262 67.2121 0.0434918 67.2026 0.0931966L63.4223 19.9068C63.4104 19.9689 63.3698 20 63.3004 20H39.5181C37.4929 20 35.8273 19.242 34.5213 17.726C33.807 16.7443 33.5553 15.7005 33.7663 14.5946L36.5331 0.0931966C36.5588 0.0310655 36.5994 0 36.6549 0Z" fill="white"/>
<path d="M69.4051 0H76.3338C76.4008 0.0124262 76.4295 0.0434918 76.4201 0.0931966L73.5253 15.2656H96.9539C97.0233 15.2656 97.0532 15.2905 97.0437 15.3402L96.1725 19.9068C96.1606 19.9689 96.12 20 96.0506 20H65.5892C65.5199 20 65.4911 19.9689 65.503 19.9068L69.2833 0.0931966C69.309 0.0310655 69.3496 0 69.4051 0Z" fill="white"/>
<path d="M109.001 0H132.617C132.684 0.0124262 132.712 0.0434918 132.703 0.0931966L131.832 4.65983C131.82 4.72196 131.779 4.75303 131.71 4.75303H110.091C108.858 4.88972 108.156 5.41162 107.982 6.31873C107.866 6.92762 108.146 7.38739 108.822 7.69804C109.027 7.78503 109.283 7.82852 109.588 7.82852H124.278C126.344 7.82852 128.036 8.56167 129.351 10.028C130.13 11.0345 130.41 12.1094 130.192 13.2526L129.929 14.6319C129.557 16.5828 127.987 18.1609 125.218 19.3663C124.083 19.7888 122.961 20 121.851 20H98.3394C98.27 20 98.2413 19.9689 98.2531 19.9068L99.1244 15.3402C99.1478 15.2905 99.1872 15.2656 99.2427 15.2656H120.757C121.631 15.2656 122.301 14.9177 122.766 14.2218C122.879 13.9236 122.94 13.7496 122.949 13.6999C123.068 13.0786 122.796 12.6126 122.134 12.302C121.929 12.215 121.666 12.1715 121.347 12.1715H106.866C104.48 12.1715 102.641 11.3389 101.35 9.67381C100.76 8.7667 100.561 7.80988 100.753 6.80336L101.016 5.42404C101.365 3.59739 102.783 2.0876 105.272 0.894688C106.664 0.36036 107.907 0.0621311 109.001 0Z" fill="white"/>
<path d="M147.931 0H155.026C155.143 0.111836 156.191 2.29264 158.168 6.5424C162.166 15.1041 164.246 19.5775 164.409 19.9627L164.402 20H156.204C156.043 19.826 154.239 16.0112 150.793 8.55545C150.367 7.66076 150.14 7.21342 150.112 7.21342C143.042 15.5514 139.413 19.8136 139.225 20H130.986L131.003 19.9068C141.886 7.07052 147.529 0.434918 147.931 0Z" fill="white"/>
<path d="M170.402 0H193.914C196.05 0 197.776 0.733147 199.091 2.19944C199.87 3.20596 200.148 4.29326 199.926 5.46132L199.236 9.07735C198.878 10.9537 197.43 12.507 194.893 13.7372L193.93 14.0913L197.159 19.9627L197.048 20H188.6C188.432 19.7888 187.402 17.9559 185.509 14.5014H174.668L173.637 19.9068C173.625 19.9689 173.584 20 173.515 20H166.586C166.517 20 166.488 19.9689 166.5 19.9068L170.28 0.0931966C170.306 0.0310655 170.347 0 170.402 0ZM176.528 4.75303L175.575 9.74837H189.12C190.563 9.74837 191.586 9.18298 192.19 8.05219C192.296 7.79124 192.372 7.5365 192.42 7.28798C192.649 6.08263 192.241 5.28114 191.193 4.8835C190.863 4.79652 190.517 4.75303 190.157 4.75303H176.528Z" fill="white"/>
</svg>

<svg width="200" height="20" fill="none" xmlns="http://www.w3.org/2000/svg"><path d="M3.905 0h23.47c2.441 0 4.303.895 5.584 2.684.486.944.648 1.84.487 2.684l-.708 3.71c-.343 1.801-1.716 3.323-4.117 4.566-1.343.572-2.619.857-3.825.857H8.17l-1.032 5.406c-.011.062-.052.093-.121.093H.088c-.069 0-.097-.031-.085-.093L3.783.093C3.809.031 3.849 0 3.905 0zm6.126 4.753l-.953 4.995h13.545c1.442 0 2.466-.565 3.07-1.696.105-.26.182-.515.23-.764.229-1.205-.18-2.007-1.227-2.405a4.052 4.052 0 00-1.037-.13H10.031zM36.655 0h6.929c.067.012.095.043.086.093l-2.212 11.594c-.334 1.752.3 2.895 1.905 3.43.37.099.72.149 1.053.149H57.15L60.045.093c.026-.062.066-.093.122-.093h6.95c.066.012.095.043.086.093l-3.78 19.814c-.013.062-.053.093-.123.093H39.518c-2.025 0-3.69-.758-4.997-2.274-.714-.982-.966-2.025-.755-3.131L36.533.093C36.56.031 36.6 0 36.655 0zm32.75 0h6.929c.067.012.096.043.086.093l-2.895 15.173h23.429c.07 0 .1.024.09.074l-.871 4.567c-.012.062-.053.093-.122.093H65.589c-.07 0-.098-.031-.086-.093L69.283.093C69.31.031 69.35 0 69.405 0zm39.596 0h23.616c.067.012.095.043.086.093l-.871 4.567c-.012.062-.053.093-.122.093h-21.619c-1.233.137-1.935.659-2.109 1.566-.116.609.164 1.068.84 1.379.205.087.461.13.766.13h14.69c2.066 0 3.758.734 5.073 2.2.779 1.006 1.059 2.081.841 3.225l-.263 1.379c-.372 1.95-1.942 3.529-4.711 4.734-1.135.423-2.257.634-3.367.634H98.339c-.069 0-.098-.031-.086-.093l.871-4.567a.121.121 0 01.119-.074h21.514c.874 0 1.544-.348 2.009-1.044a5.5 5.5 0 00.183-.522c.119-.621-.153-1.087-.815-1.398-.205-.087-.468-.13-.787-.13h-14.481c-2.386 0-4.225-.833-5.516-2.498-.59-.907-.789-1.864-.597-2.87l.263-1.38c.349-1.827 1.767-3.336 4.256-4.53 1.392-.534 2.635-.832 3.729-.894zm38.93 0h7.095c.117.112 1.165 2.293 3.142 6.542 3.998 8.562 6.078 13.035 6.241 13.42l-.007.038h-8.198c-.161-.174-1.965-3.989-5.411-11.445-.426-.894-.653-1.342-.681-1.342-7.07 8.338-10.699 12.6-10.887 12.787h-8.239l.017-.093C141.886 7.07 147.529.435 147.931 0zm22.471 0h23.512c2.136 0 3.862.733 5.177 2.2.779 1.006 1.057 2.093.835 3.261l-.69 3.616c-.358 1.877-1.806 3.43-4.343 4.66l-.963.354 3.229 5.872-.111.037H188.6c-.168-.211-1.198-2.044-3.091-5.499h-10.841l-1.031 5.406c-.012.062-.053.093-.122.093h-6.929c-.069 0-.098-.031-.086-.093L170.28.093c.026-.062.067-.093.122-.093zm6.126 4.753l-.953 4.995h13.545c1.443 0 2.466-.565 3.07-1.696a4.06 4.06 0 00.23-.764c.229-1.205-.179-2.007-1.227-2.405a4.052 4.052 0 00-1.036-.13h-13.629z" fill="#fff"/></svg>
